X: 27388
T: Mocha
R: jig
M: 6/8
K: Aminor
|:e/d/|cAA EAA|cBc e2 d|cde ged|cBA Ged|
cAA E2 A|cBc e2 d|c>BA GAB|cA^G A2:|
|:B|c2 e efe|efe edc|B2 g gdc|BGg dcB|
cee ee/f/e|ee/f/e edc|BGg dcB|cA^G A2:|

